tools/download-figma-icons/icons/outlined-large/keys.svg

<svg width="64" height="65" viewBox="0 0 64 65" fill="none" xmlns="http://www.w3.org/2000/svg">
<path fill-rule="evenodd" clip-rule="evenodd" d="M54.8536 53.4885C55.5016 53.0235 55.9036 52.3285 55.9866 51.5305C56.0706 50.7305 55.8206 49.9635 55.2816 49.3715L38.3926 30.8085C37.9426 30.3145 37.8746 29.5815 38.2246 29.0125C39.3666 27.1575 39.8996 25.0105 39.7656 22.8045C39.4666 17.8905 35.6036 13.7145 30.7806 13.0905C29.5956 12.9365 28.4316 12.9835 27.3106 13.2125C32.7246 15.4655 35.8126 21.0885 34.9056 27.3635C34.5726 29.7285 33.5646 31.8515 32.0906 33.5795C32.1174 33.5721 32.1446 33.5659 32.1719 33.5596C32.2076 33.5515 32.2434 33.5433 32.2786 33.5325C32.8346 33.3635 33.4326 33.5305 33.8236 33.9585L51.2596 53.1085C52.1906 54.1305 53.7356 54.2935 54.8536 53.4885ZM20.8996 36.1485C21.1006 35.5505 21.6556 35.1415 22.2876 35.1275C27.2276 35.0145 31.2856 31.5725 31.9356 26.9425C31.9356 26.9416 31.9358 26.9407 31.936 26.9397C31.9363 26.9385 31.9366 26.9371 31.9366 26.9355C32.5576 22.6395 30.7006 17.2645 25.1556 15.6185C23.7546 15.2025 22.4936 15.0325 21.3706 15.0325C19.2906 15.0325 17.6846 15.6175 16.5076 16.3055C17.6636 17.8235 19.2196 18.9265 20.9236 19.3925C21.3996 19.1505 21.9306 19.0005 22.5026 19.0005C24.4346 19.0005 26.0026 20.5675 26.0026 22.5005C26.0026 24.4335 24.4346 26.0005 22.5026 26.0005C20.5696 26.0005 19.0026 24.4335 19.0026 22.5005C19.0026 22.3055 19.0286 22.1175 19.0596 21.9315C17.1836 21.1835 15.5006 19.8795 14.1956 18.2015C12.5846 20.0075 11.7236 22.4435 11.7936 25.0565C11.8706 27.9815 13.2796 30.9365 15.4696 32.7685C15.9456 33.1665 16.1276 33.8145 15.9276 34.4015L8.02655 57.6645C7.98755 57.7805 7.99555 57.9145 8.04755 58.0075L9.67555 60.9855L12.7586 59.6625C12.8706 59.6155 12.9636 59.5155 13.0006 59.4075L14.7966 54.1055L13.4126 51.5935C13.2086 51.2225 13.1716 50.7835 13.3076 50.3835C13.4456 49.9825 13.7466 49.6585 14.1346 49.4915L16.7526 48.3695L17.1326 47.2555L15.9746 43.9955C15.7416 43.3375 15.9936 42.6045 16.5816 42.2285L19.4756 40.3815L20.8996 36.1485ZM41.3376 29.5875L57.5006 47.3515C58.6066 48.5675 59.1426 50.2055 58.9696 51.8435C58.7996 53.4795 57.9366 54.9675 56.6056 55.9245C55.6016 56.6465 54.4336 56.9985 53.2736 56.9995C51.7136 56.9995 50.1646 56.3605 49.0416 55.1285L32.2156 36.6475C30.9856 36.9175 29.6946 37.0075 28.3686 36.9095C28.0726 36.8865 27.9576 36.8765 27.7956 36.8515C26.4506 37.4835 24.9786 37.9055 23.4216 38.0615L22.1506 41.8395C22.0416 42.1635 21.8246 42.4405 21.5366 42.6255L19.2016 44.1155L20.1336 46.7435C20.2466 47.0625 20.2486 47.4095 20.1396 47.7295L19.3766 49.9685C19.2386 50.3705 18.9376 50.6955 18.5486 50.8635L16.8396 51.5955L17.7436 53.2385C17.9466 53.6075 17.9846 54.0455 17.8486 54.4445L15.8416 60.3685C15.5276 61.2955 14.8336 62.0425 13.9366 62.4225L10.7126 63.8055C10.3466 63.9535 9.96955 64.0235 9.60055 64.0235C8.58655 64.0235 7.63055 63.4915 7.12555 62.5745L5.42155 59.4585C4.95955 58.6315 4.87155 57.6205 5.18655 56.6965L12.7726 34.3655C10.3556 31.9735 8.88555 28.5965 8.79555 25.1355C8.69555 21.4145 10.0896 17.9555 12.6106 15.5505C12.2486 14.7345 11.9576 13.8765 11.7686 12.9755C11.0136 9.37849 11.7396 5.76449 13.7096 3.30949C15.4186 1.18049 17.9336 0.0354883 20.9846 0.000488281C26.7666 0.000488281 29.3756 3.99449 29.9496 6.10649C30.1676 6.90549 29.6956 7.73049 28.8956 7.94749C28.0926 8.16749 27.2726 7.69349 27.0546 6.89349C27.0116 6.74649 25.8666 3.00049 21.0026 3.00049C18.8656 3.02549 17.1936 3.76049 16.0486 5.18749C14.6556 6.92349 14.1406 9.67149 14.7046 12.3595C14.7986 12.8065 14.9266 13.2385 15.0766 13.6595C16.7936 12.6695 19.1816 11.8565 22.2766 12.0585C24.9326 10.3795 28.0016 9.70749 31.1656 10.1145C37.4926 10.9335 42.3696 16.1935 42.7596 22.6225C42.9076 25.0625 42.4186 27.4475 41.3376 29.5875ZM39.7342 38.0675C39.1782 37.4555 39.2232 36.5065 39.8362 35.9485C40.4482 35.3915 41.3982 35.4365 41.9542 36.0505C42.5122 36.6625 42.4672 37.6115 41.8542 38.1685C41.2412 38.7255 40.2922 38.6805 39.7342 38.0675ZM52.0175 52.1251C51.4605 51.5121 51.5055 50.5641 52.1185 50.0061C52.7305 49.4491 53.6805 49.4941 54.2365 50.1071C54.7945 50.7201 54.7495 51.6681 54.1375 52.2261C53.5235 52.7831 52.5745 52.7381 52.0175 52.1251ZM46.1644 41.2287C45.6064 40.6157 44.6584 40.5707 44.0454 41.1277C43.4324 41.6857 43.3874 42.6337 43.9444 43.2477L47.3084 46.9467C47.8654 47.5587 48.8144 47.6037 49.4274 47.0467C50.0404 46.4897 50.0854 45.5407 49.5274 44.9277L46.1644 41.2287Z" fill="black"/>
</svg>

<svg width="64" height="65" viewBox="0 0 64 65" fill="none" xmlns="http://www.w3.org/2000/svg"><path fill-rule="evenodd" clip-rule="evenodd" d="M54.854 53.489a2.724 2.724 0 0 0 1.133-1.958 2.741 2.741 0 0 0-.705-2.16l-16.89-18.563a1.5 1.5 0 0 1-.167-1.796 10.556 10.556 0 0 0 1.54-6.207c-.298-4.915-4.161-9.09-8.984-9.714a10.509 10.509 0 0 0-3.47.122c5.414 2.253 8.502 7.876 7.595 14.15a12.162 12.162 0 0 1-2.815 6.217c.026-.008.054-.014.08-.02.037-.009.072-.017.108-.028a1.498 1.498 0 0 1 1.545.427l17.436 19.15a2.715 2.715 0 0 0 3.594.38ZM20.9 36.148a1.5 1.5 0 0 1 1.388-1.022c4.94-.113 8.998-3.555 9.648-8.185v-.007c.622-4.295-1.235-9.67-6.78-11.316-1.401-.416-2.662-.586-3.785-.586-2.08 0-3.686.585-4.863 1.272 1.156 1.518 2.712 2.622 4.416 3.087A3.467 3.467 0 0 1 22.503 19a3.5 3.5 0 1 1-3.5 3.5c0-.195.026-.383.057-.569-1.876-.748-3.56-2.052-4.864-3.73-1.611 1.806-2.472 4.242-2.402 6.855.077 2.925 1.486 5.88 3.676 7.713.476.398.658 1.046.458 1.633L8.027 57.663a.443.443 0 0 0 .02.343l1.629 2.979 3.083-1.323a.445.445 0 0 0 .242-.255l1.796-5.303-1.384-2.511a1.505 1.505 0 0 1-.105-1.21c.138-.401.439-.726.827-.892l2.618-1.122.38-1.114-1.158-3.26a1.503 1.503 0 0 1 .607-1.768l2.894-1.846 1.424-4.233Zm20.438-6.562L57.5 47.352a5.78 5.78 0 0 1-.895 8.573 5.718 5.718 0 0 1-7.564-.796L32.216 36.648a13.33 13.33 0 0 1-4.42.203 13.418 13.418 0 0 1-4.374 1.21L22.15 41.84a1.506 1.506 0 0 1-.614.785l-2.335 1.49.932 2.628c.113.32.115.666.006.986l-.763 2.24a1.508 1.508 0 0 1-.828.895l-1.71.732.905 1.643a1.5 1.5 0 0 1 .105 1.206l-2.007 5.923a3.422 3.422 0 0 1-1.905 2.054l-3.224 1.384a2.962 2.962 0 0 1-1.112.218 2.811 2.811 0 0 1-2.475-1.45L5.422 59.46a3.42 3.42 0 0 1-.235-2.763l7.586-22.33c-2.417-2.392-3.887-5.77-3.977-9.23-.1-3.721 1.294-7.18 3.815-9.585a12.854 12.854 0 0 1-.842-2.575c-.755-3.598-.03-7.212 1.94-9.667C15.42 1.18 17.935.035 20.986 0c5.782 0 8.39 3.994 8.965 6.106a1.5 1.5 0 0 1-1.054 1.841 1.496 1.496 0 0 1-1.841-1.054C27.012 6.746 25.867 3 21.003 3c-2.137.025-3.81.76-4.954 2.187-1.393 1.736-1.908 4.484-1.344 7.173.094.447.222.879.372 1.3 1.717-.99 4.105-1.803 7.2-1.601 2.656-1.68 5.725-2.352 8.889-1.944 6.327.819 11.204 6.079 11.594 12.507a13.561 13.561 0 0 1-1.422 6.965Zm-1.604 8.48a1.501 1.501 0 0 1 .102-2.118 1.498 1.498 0 0 1 2.118.102 1.498 1.498 0 0 1-.1 2.117 1.502 1.502 0 0 1-2.12-.1Zm12.283 14.058a1.5 1.5 0 1 1 2.221-2.018 1.5 1.5 0 0 1-2.22 2.018ZM46.164 41.23a1.5 1.5 0 1 0-2.22 2.019l3.364 3.699a1.501 1.501 0 0 0 2.22-2.02l-3.364-3.698Z" fill="currentColor"/></svg>
